X: 710
T: Ey Gül Ne Acep...
C: Yusuf Ziya Paşa
O: Turkey
F: http://compmusic.upf.edu/node/140
N: nisaburek--yuruksemai--yuruksemai--ey_gul--yusuf_ziya_pasa
N: makam= nisaburek
N: form= yuruksemai
N: usul= yuruksemai = 6/8
M: 6/8
L: 1/16
K: C ^9/8f ^3/4c ^3/4g 
Q: 1/4=78
%%MIDI tuningsystem comma53
A4e4 f3e=g3f e2d2c2B2  | c8 cBc2d2e2 c3BA4  | \
w:  Ey  gül  ne  *  a *  cep   |  sil si *  *  le  *  i   | 
e3dc4 d4e2f2 edcBc4  | 
w:  müşk_ *  *  i  te *  rin   | 
BcB2cdc2 d2e2{f}edcd e8  | A4e4 e2f2a=gfe edcBc4  | 
w:  var    |  Ey  şûh  *  *  ne  *  *  *  hoş   | 
d8 d4c2d2 efedc3B  | A4f3e e3dedcB c8  | \
w:  can  a lı *  cı   |  *  iş *  ve *  le *  *  *  rin   | 
A3cB3d c3BBcBA A8  | 
w:  var    | 
dcBAB2c2 d3fe3d c3BA4  | B4=c3B A4e4 ed^3/4cBA4  | 
w:  Gel  *  *  *  ça *  re *  sâ *  zım   |  gel  dil *  nu vâ zım    | 
f3ee3d c2Bcdedc c8  | A3cB3A GFE2BcBA A8  | 
w:  Serv_ *  i  *  bü *  *  len *  *  *  dim   |  sen *  sin  *  e *  *  fen *  *  *  dim    | 
E2A2A4 G2A2BcBA A8  | c3Bd3c e3dc3B A8  | \
w:  Câ nım  ye  le  *  lel  *  *  *  li   |  lel  *  lel  *  lel  *  lel  *  li   | 
ABcde3f d3cB3d c8  | 
w:  yâr   | 
A3cB3A GFE2BcBA A8  | A4a4 a3gf2g2 abaga4  | 
w:  iş *  ve *  le *  *  rin  *  *  *  var    |  A zür de  *  di *  li   | 
=g8 f4a4 a^3/4gfed4  | e3fagfe e3dc3d e8  | \
w:  şer ha le di   |  tünd_ *  i   | 
c3Be3d c3BBcBA A8  | 
w:  ni *  *  *  ge *  *  *  *  *  hin    | 
d4d4 d2_3/4e2d2c2 d3cB4  | d2_3/4e2d2ef e2dedcBc d8  | 
w:  Ey  göz le *  ri  *  â  |  hû  *  *  *  *  ne  *  *  be *  *  *  lâ   | 
_3/4e3dc4 d3cB4 A3f=e4  | c3Be3d c3BBcBA A8  | \
w:  gam *  *  ze *  le rin   |  var    | 
dcBAB2c2 d3fe3d c3BA4  | 
w:  Gel  *  *  *  ça *  re *  sâ *  zım   | 
B4=c3B A4e4 ed^3/4cBA4  | f3ee3d c2Bcdedc c8  | 
w:  gel  dil *  nu vâ zım    |  Serv_ *  i  *  bü *  *  len *  *  *  dim   | 
A3cB3A GFE2BcBA A8  | E2A2A4 G2A2BcBA A8  | 
w:  sen *  sin  *  e *  *  fen *  *  *  dim    |  Câ nım  ye  le  *  lel  *  *  *  li   | 
c3Bd3c e3dc3B A8  | ABcde3f d3cB3d c8  | \
w:  lel  *  lel  *  lel  *  lel  *  li   |  yâr   | 
A3cB3A GFE2BcBA A8  | 
w:  iş *  ve *  le *  *  rin  *  *  *  var    | 
|


